!!!COM: Bach, Johann Sebastian
!!!CDT: 1685/02/21/-1750/07/28/
!!!OTL@@DE: Christum wir sollen loben schon
!!!SCT: BWV 121/6
!!!PC#: 56
!!!AGN: chorale
**harm	**kern	**kern	**kern	**kern
*	*ICvox	*ICvox	*ICvox	*ICvox
*	*Ibass	*Itenor	*Ialto	*Isoprn
*	*I"Bass	*I"Tenor	*I"Alto	*I"Soprano
*	*	*oclefC4	*oclefC3	*oclefC1
*	*clefF4	*clefGv2	*clefG2	*clefG2
*k[f#c#]	*k[f#c#]	*k[f#c#]	*k[f#c#]	*k[f#c#]
*e:dor	*e:dor	*e:dor	*e:dor	*e:dor
*M4/4	*M4/4	*M4/4	*M4/4	*M4/4
*met(c)	*met(c)	*met(c)	*met(c)	*met(c)
*MM100	*MM100	*MM100	*MM100	*MM100
i	4EE	4G	4B	4e
=1	=1	=1	=1	=1
i	4E	4B	4e	4g
i	4E	4B	4e	4g
IV6	4C#	4A	4e	4a
V65	4D#	4A	4f#	4b
=2	=2	=2	=2	=2
i	4E	4G	4e	4b
i6	4G	4B	4e	4e
viio6	4F#	4A	4d#	4a
i	4E	4B	4e	4g
=3	=3	=3	=3	=3
V;	2.BB;	2.B;	2.d#;	2.f#;
D:I6	4FF#	4A	4d	4a
=4	=4	=4	=4	=4
ii	8EEL	8eL	8gL	8bL
viio6	8EEJ	8eJ	8gJ	8cc#J
I	4DD	4A	4f#	4dd
I6	4FF#	4A	4a	4dd
V	4AA	4c#	4e	4cc#
=5	=5	=5	=5	=5
ii	4EE	4e	4g	4b
iii	4FF#	4c#	4f#	4a
IV	4GG	4B	4d	4b
IV6	4BB	4B	4g	4dd
=6	=6	=6	=6	=6
I;	2.D;	2.A;	2.f#;	2.dd;
I	8DL	8dL	8f#L	8aL
V6	8C#J	8eJ	8eJ	8aJ
=7	=7	=7	=7	=7
vi	4BB	4f#	4d	4b
b:i	4BB	4B	4f#	4dd
i6	4D	4B	4f#	4dd
v7	4F#	4A	4e	4cc#
=8	=8	=8	=8	=8
VI	8GL	8BL	8dL	8bL
vii%43/III	8GJ	8c#J	8eJ	8bJ
III6	4F#	4d	4f#	4a
iv	4E	4G	4g	4b
i	4BB	4B	4d	4dd
=9	=9	=9	=9	=9
i6	4D	4B	4f#	4dd
III6	4F#	4d	4f#	4a
v6	8AL	8c#L	8f#L	8f#L
e:V	8BJ	8d#J	8f#J	8f#J
iv6	4c	4e	4e	4a
=10	=10	=10	=10	=10
V;	2.B;	2.d#;	2.f#;	2.b;
i6	8GL	8BL	8eL	8eL
V64	8F#J	8BJ	8d#J	8f#J
=11	=11	=11	=11	=11
i	4E	4B	4e	4g
i	4E	4B	4g	4g
v6	4D	4dnX	4f#	4b
v	8BBL	8f#L	8dL	8ddL
G:V43	8AAJ	8f#J	8cnXJ	8ddJ
=12	=12	=12	=12	=12
I	4GG	4g	4B	4dd
I6	4BB	4G	4d	4b
V	4D	4d	4f#	4a
V	4D	4f#	4f#	4f#
=13	=13	=13	=13	=13
e:V7	4BB	4f#	4d#	4a
VI	4C	4e	4e	4g
b:V65	4AA#	4c#	4e	4f#
V	4AA#	4F#	4c#	4f#
=14	=14	=14	=14	=14
i	4BB	4B	4d	4f#
i6	4D	4B	4f#	4f#
V	4.F#	4.A#	4.f#	4.f#
V2	8E	8c#	8a#	8f#
=15	=15	=15	=15	=15
i6	4D	4d	4b	4f#
i	2.BB	2.d	2.b	2.f#
=16	=16	=16	=16	=16
V(64)	2F#	2d	2b	2f#
V;	2FF#;	2c#;	2a#;	2f#;
==	==	==	==	==
*-	*-	*-	*-	*-
!!!YOR1: 371 vierstimmige Choralges&auml;nge von Johann Sebastian Bach, 
!!!YOR2: 4th ed. by Alfred D&ouml;rffel (Leipzig: Breitkopf und H&auml;rtel, 
!!!YOR2: c.1875). 178 pp. Plate "V.A.10".  reprint: J.S. Bach, 371 Four-Part 
!!!YOR4: Chorales (New York: Associated Music Publishers, Inc., c.1940).
!!!SMS: B&H, 4th ed, Alfred D&ouml;rffel, c.1875, plate V.A.10
!!!EED:  Craig Stuart Sapp
!!!EEV:  2009/05/22
